images/zhuyin/26.svg

<svg width="50" height="50" viewBox="0 0 50 50" fill="none" xmlns="http://www.w3.org/2000/svg">
<path d="M16.2812 17.6562C16.4062 17.6562 16.5312 17.6875 16.6562 17.75C17.0938 17.8125 17.5312 17.8438 17.9688 17.8438C18.3125 17.8438 18.7188 17.8125 19.1875 17.75L29.6875 16.5312C30.25 16.4219 30.6875 16.2969 31 16.1562C31.25 16.0312 31.5312 15.9688 31.8438 15.9688C32.1094 15.9688 32.4609 16.1484 32.8984 16.5078C33.3828 16.9141 33.625 17.2109 33.625 17.3984C33.625 17.5703 33.5 17.6562 33.25 17.6562C33.0469 17.6562 32.8203 17.6406 32.5703 17.6094L31.9375 17.5625C30.5938 17.625 29 17.75 27.1562 17.9375L26.5938 18.0078C26.6094 20.1016 26.5625 21.7578 26.4531 22.9766C26.4219 23.2734 26.3047 23.5469 26.1016 23.7969C25.7891 24.1562 25.4219 24.3359 25 24.3359C24.8906 24.3359 24.7031 24.2891 24.4375 24.1953C24.2031 24.1484 24.0156 24.125 23.875 24.125C23.0312 24.125 22.2578 24.4453 21.5547 25.0859C20.9141 25.7891 20.5938 26.5703 20.5938 27.4297C20.5938 28.6016 21.0156 29.5859 21.8594 30.3828C22.7812 31.2734 23.9531 31.7188 25.375 31.7188C27.3438 31.7188 29.0391 30.8281 30.4609 29.0469C30.7109 28.8281 30.9531 28.7188 31.1875 28.7188C31.4219 28.7188 31.6172 28.7812 31.7734 28.9062C31.9453 29.0781 32.0312 29.2734 32.0312 29.4922C32.0312 30.3203 31.4141 31.1562 30.1797 32C28.8516 32.9531 27.25 33.4297 25.375 33.4297C23.5 33.4297 21.9375 32.8594 20.6875 31.7188C19.4375 30.4688 18.8125 29.0391 18.8125 27.4297C18.8125 26.0547 19.25 24.9219 20.125 24.0312C21.0625 23.1562 22.3125 22.6562 23.875 22.5312C24.4375 22.4219 24.6875 22.1094 24.625 21.5938L24.4375 18.2422C21.8281 18.6016 19.9375 18.9688 18.7656 19.3438C18.4688 19.4688 18.2031 19.5312 17.9688 19.5312C17.6875 19.5312 17.2031 19.2656 16.5156 18.7344C16.0469 18.3281 15.8125 18.0625 15.8125 17.9375C15.8125 17.75 15.9688 17.6562 16.2812 17.6562Z" fill="#333333"/>
<path d="M16.6562 17.75L16.4326 18.1972L16.5052 18.2335L16.5855 18.245L16.6562 17.75ZM19.1875 17.75L19.1298 17.2533L19.1214 17.2544L19.1875 17.75ZM29.6875 16.5312L29.7451 17.0279L29.7642 17.0257L29.7829 17.0221L29.6875 16.5312ZM31 16.1562L31.2052 16.6122L31.2145 16.608L31.2236 16.6035L31 16.1562ZM32.8984 16.5078L33.2198 16.1247L33.2158 16.1214L32.8984 16.5078ZM32.5703 17.6094L32.6323 17.1132L32.6198 17.1117L32.6072 17.1107L32.5703 17.6094ZM31.9375 17.5625L31.9744 17.0639L31.9444 17.0616L31.9143 17.063L31.9375 17.5625ZM27.1562 17.9375L27.1056 17.4399L27.0942 17.4414L27.1562 17.9375ZM26.5938 18.0078L26.5317 17.5117L26.0904 17.5668L26.0938 18.0115L26.5938 18.0078ZM26.4531 22.9766L26.9504 23.0289L26.9511 23.0213L26.4531 22.9766ZM26.1016 23.7969L26.4789 24.125L26.4843 24.1187L26.4896 24.1122L26.1016 23.7969ZM24.4375 24.1953L24.6039 23.7238L24.5704 23.712L24.5356 23.705L24.4375 24.1953ZM21.5547 25.0859L21.2179 24.7163L21.2008 24.732L21.1851 24.7492L21.5547 25.0859ZM21.8594 30.3828L22.2068 30.0232L22.2027 30.0193L21.8594 30.3828ZM30.4609 29.0469L30.1317 28.6706L30.0981 28.7L30.0702 28.7349L30.4609 29.0469ZM31.7734 28.9062L32.127 28.5527L32.1074 28.5331L32.0858 28.5158L31.7734 28.9062ZM30.1797 32L29.8975 31.5871L29.8882 31.5938L30.1797 32ZM20.6875 31.7188L20.3339 32.0723L20.342 32.0804L20.3505 32.0881L20.6875 31.7188ZM20.125 24.0312L19.7838 23.6657L19.7759 23.6731L19.7683 23.6808L20.125 24.0312ZM23.875 22.5312L23.9149 23.0297L23.9429 23.0274L23.9704 23.0221L23.875 22.5312ZM24.625 21.5938L24.1258 21.6217L24.1267 21.6378L24.1286 21.6539L24.625 21.5938ZM24.4375 18.2422L24.9367 18.2143L24.9064 17.6729L24.3693 17.7469L24.4375 18.2422ZM18.7656 19.3438L18.6132 18.8675L18.5921 18.8743L18.5716 18.8829L18.7656 19.3438ZM16.5156 18.7344L16.1882 19.1122L16.1988 19.1214L16.2099 19.13L16.5156 18.7344ZM16.2812 18.1562C16.3199 18.1562 16.3688 18.1653 16.4326 18.1972L16.8799 17.3028C16.6937 17.2097 16.4926 17.1562 16.2812 17.1562V18.1562ZM16.5855 18.245C17.0462 18.3108 17.5074 18.3438 17.9688 18.3438V17.3438C17.5551 17.3438 17.1413 17.3142 16.727 17.255L16.5855 18.245ZM17.9688 18.3438C18.3411 18.3438 18.7704 18.31 19.2536 18.2456L19.1214 17.2544C18.6671 17.315 18.2839 17.3438 17.9688 17.3438V18.3438ZM19.2451 18.2467L29.7451 17.0279L29.6299 16.0346L19.1299 17.2533L19.2451 18.2467ZM29.7829 17.0221C30.3616 16.9095 30.842 16.7757 31.2052 16.6122L30.7948 15.7003C30.533 15.8181 30.1384 15.9342 29.5921 16.0404L29.7829 17.0221ZM31.2236 16.6035C31.3963 16.5171 31.5996 16.4688 31.8438 16.4688V15.4688C31.4629 15.4688 31.1037 15.5454 30.7764 15.709L31.2236 16.6035ZM31.8438 16.4688C31.8683 16.4688 31.9422 16.4788 32.0791 16.5487C32.2124 16.6169 32.3792 16.7283 32.5811 16.8942L33.2158 16.1214C32.9802 15.9279 32.7524 15.7698 32.5342 15.6583C32.3195 15.5486 32.0848 15.4688 31.8438 15.4688V16.4688ZM32.5771 16.8909C32.8086 17.085 32.9633 17.2377 33.0559 17.3512C33.102 17.4077 33.1238 17.4437 33.1324 17.4609C33.1423 17.4807 33.125 17.4559 33.125 17.3984H34.125C34.125 17.1184 33.9612 16.879 33.8308 16.7191C33.6812 16.5357 33.4727 16.3369 33.2197 16.1247L32.5771 16.8909ZM33.125 17.3984C33.125 17.3808 33.1284 17.3411 33.1517 17.2931C33.1761 17.2427 33.2122 17.2044 33.248 17.1798C33.2645 17.1685 33.2785 17.1616 33.2878 17.1578C33.2925 17.1558 33.2962 17.1546 33.2986 17.1538C33.301 17.1531 33.3023 17.1528 33.3024 17.1528C33.3024 17.1528 33.3014 17.153 33.2991 17.1534C33.2968 17.1537 33.2935 17.1542 33.289 17.1546C33.2799 17.1555 33.2671 17.1562 33.25 17.1562V18.1562C33.4168 18.1562 33.6304 18.1304 33.8145 18.0038C34.0324 17.854 34.125 17.6235 34.125 17.3984H33.125ZM33.25 17.1562C33.0718 17.1562 32.8664 17.1425 32.6323 17.1132L32.5083 18.1055C32.7742 18.1388 33.0219 18.1562 33.25 18.1562V17.1562ZM32.6072 17.1107L31.9744 17.0639L31.9006 18.0611L32.5334 18.108L32.6072 17.1107ZM31.9143 17.063C30.5587 17.1261 28.9554 17.252 27.1057 17.4401L27.2068 18.4349C29.0446 18.248 30.6288 18.1239 31.9607 18.062L31.9143 17.063ZM27.0942 17.4414L26.5317 17.5117L26.6558 18.504L27.2183 18.4336L27.0942 17.4414ZM26.0938 18.0115C26.1093 20.0987 26.0624 21.7366 25.9551 22.9319L26.9511 23.0213C27.0626 21.7791 27.1094 20.1044 27.0937 18.0041L26.0938 18.0115ZM25.9559 22.9242C25.9356 23.1171 25.8606 23.3006 25.7135 23.4816L26.4896 24.1122C26.7488 23.7932 26.9082 23.4298 26.9504 23.0289L25.9559 22.9242ZM25.7243 23.4688C25.4931 23.7347 25.2576 23.8359 25 23.8359V24.8359C25.5862 24.8359 26.0851 24.5778 26.4789 24.125L25.7243 23.4688ZM25 23.8359C25.0059 23.8359 24.978 23.8356 24.8986 23.8157C24.8253 23.7974 24.7279 23.7676 24.6039 23.7238L24.2711 24.6668C24.5316 24.7588 24.7942 24.8359 25 24.8359V23.8359ZM24.5356 23.705C24.2879 23.6555 24.0635 23.625 23.875 23.625V24.625C23.9677 24.625 24.1183 24.6414 24.3394 24.6856L24.5356 23.705ZM23.875 23.625C22.8906 23.625 22.0005 24.0033 21.2179 24.7163L21.8914 25.4555C22.5151 24.8873 23.1719 24.625 23.875 24.625V23.625ZM21.1851 24.7492C20.4703 25.5338 20.0938 26.4321 20.0938 27.4297H21.0938C21.0938 26.7086 21.3579 26.0444 21.9243 25.4227L21.1851 24.7492ZM20.0938 27.4297C20.0938 28.7376 20.5712 29.854 21.5161 30.7463L22.2027 30.0193C21.46 29.3179 21.0938 28.4655 21.0938 27.4297H20.0938ZM21.512 30.7424C22.5376 31.7333 23.8389 32.2188 25.375 32.2188V31.2188C24.0673 31.2188 23.0249 30.8136 22.2068 30.0232L21.512 30.7424ZM25.375 32.2188C27.5209 32.2188 29.3518 31.2378 30.8517 29.3588L30.0702 28.7349C28.7264 30.4184 27.1666 31.2188 25.375 31.2188V32.2188ZM30.7902 29.4232C30.9867 29.2512 31.1164 29.2188 31.1875 29.2188V28.2188C30.7899 28.2188 30.4351 28.4051 30.1317 28.6706L30.7902 29.4232ZM31.1875 29.2188C31.3287 29.2188 31.4082 29.2543 31.4611 29.2967L32.0858 28.5158C31.8262 28.3082 31.5151 28.2188 31.1875 28.2188V29.2188ZM31.4199 29.2598C31.5094 29.3493 31.5312 29.4214 31.5312 29.4922H32.5312C32.5312 29.1255 32.3812 28.8069 32.127 28.5527L31.4199 29.2598ZM31.5312 29.4922C31.5312 30.0584 31.1021 30.7638 29.8975 31.5872L30.4618 32.4128C31.726 31.5487 32.5312 30.5822 32.5312 29.4922H31.5312ZM29.8882 31.5938C28.6571 32.4772 27.1614 32.9297 25.375 32.9297V33.9297C27.3386 33.9297 29.046 33.429 30.4712 32.4062L29.8882 31.5938ZM25.375 32.9297C23.6101 32.9297 22.1722 32.3966 21.0245 31.3494L20.3505 32.0881C21.7028 33.3221 23.3899 33.9297 25.375 33.9297V32.9297ZM21.0411 31.3652C19.8747 30.1988 19.3125 28.8928 19.3125 27.4297H18.3125C18.3125 29.1854 19.0003 30.7387 20.3339 32.0723L21.0411 31.3652ZM19.3125 27.4297C19.3125 26.1712 19.7082 25.1689 20.4817 24.3817L19.7683 23.6808C18.7918 24.6749 18.3125 25.9382 18.3125 27.4297H19.3125ZM20.4662 24.3968C21.304 23.6148 22.4392 23.1477 23.9149 23.0297L23.8351 22.0328C22.1858 22.1648 20.821 22.6977 19.7838 23.6657L20.4662 24.3968ZM23.9704 23.0221C24.3187 22.9543 24.6494 22.8089 24.8748 22.5272C25.1067 22.2373 25.1637 21.8832 25.1214 21.5336L24.1286 21.6539C24.1488 21.8199 24.1121 21.8799 24.0939 21.9025C24.0693 21.9333 23.9938 21.9988 23.7796 22.0404L23.9704 23.0221ZM25.1242 21.5658L24.9367 18.2143L23.9383 18.2701L24.1258 21.6217L25.1242 21.5658ZM24.3693 17.7469C21.756 18.1068 19.829 18.4785 18.6132 18.8675L18.918 19.82C20.046 19.459 21.9003 19.0963 24.5057 18.7375L24.3693 17.7469ZM18.5716 18.8829C18.3146 18.9911 18.1165 19.0312 17.9688 19.0312V20.0312C18.2897 20.0312 18.6229 19.9464 18.9597 19.8046L18.5716 18.8829ZM17.9688 19.0312C17.9729 19.0312 17.9478 19.0313 17.8836 19.0091C17.8219 18.9876 17.7397 18.9511 17.6349 18.8936C17.4247 18.7783 17.1547 18.5963 16.8213 18.3387L16.2099 19.13C16.564 19.4037 16.88 19.6201 17.1541 19.7704C17.4117 19.9117 17.6962 20.0312 17.9688 20.0312V19.0312ZM16.8431 18.3565C16.6151 18.1589 16.4587 18.0078 16.3632 17.8997C16.315 17.845 16.2927 17.8129 16.2852 17.8004C16.2697 17.7746 16.3125 17.8306 16.3125 17.9375H15.3125C15.3125 18.1069 15.3846 18.243 15.4277 18.3149C15.4788 18.4 15.5444 18.4831 15.6134 18.5613C15.7523 18.7187 15.9474 18.9036 16.1882 19.1122L16.8431 18.3565ZM16.3125 17.9375C16.3125 17.9614 16.307 18.0067 16.2789 18.0573C16.2504 18.1085 16.2129 18.1397 16.1869 18.1553C16.1642 18.1689 16.1553 18.1679 16.1742 18.1641C16.1924 18.1605 16.2266 18.1562 16.2812 18.1562V17.1562C16.0913 17.1562 15.8658 17.1818 15.6724 17.2978C15.4384 17.4382 15.3125 17.6744 15.3125 17.9375H16.3125Z" fill="#333333"/>
</svg>

<svg xmlns="http://www.w3.org/2000/svg" width="50" height="50" fill="none"><path fill="#333" d="M16.281 17.656c.125 0 .25.032.375.094.438.063.875.094 1.313.094.343 0 .75-.032 1.218-.094l10.5-1.219c.563-.11 1-.234 1.313-.375a1.86 1.86 0 0 1 .844-.187c.265 0 .617.18 1.054.539.485.406.727.703.727.89 0 .172-.125.258-.375.258-.203 0-.43-.015-.68-.047l-.633-.047a89.109 89.109 0 0 0-4.78.375l-.563.07c.015 2.095-.032 3.75-.14 4.97-.032.296-.15.57-.352.82-.313.36-.68.539-1.102.539-.11 0-.297-.047-.563-.14a3.023 3.023 0 0 0-.562-.071c-.844 0-1.617.32-2.32.96-.64.704-.961 1.485-.961 2.345 0 1.172.422 2.156 1.265 2.953.922.89 2.094 1.336 3.516 1.336 1.969 0 3.664-.89 5.086-2.672.25-.219.492-.328.727-.328.234 0 .43.062.585.187a.808.808 0 0 1 .258.586c0 .828-.617 1.664-1.851 2.508-1.328.953-2.93 1.43-4.805 1.43-1.875 0-3.438-.57-4.688-1.711-1.25-1.25-1.875-2.68-1.875-4.29 0-1.374.438-2.507 1.313-3.398.938-.875 2.188-1.375 3.75-1.5.563-.11.813-.422.75-.937l-.188-3.352c-2.609.36-4.5.727-5.671 1.102-.297.125-.563.187-.797.187-.282 0-.766-.265-1.453-.797-.47-.406-.703-.672-.703-.797 0-.187.156-.28.468-.28Z"/><path fill="#333" d="m16.656 17.75-.223.447.072.037.08.011.071-.495Zm2.532 0-.058-.497-.009.001.067.496Zm10.5-1.219.057.497.02-.002.018-.004-.096-.49ZM31 16.156l.205.456.01-.004.009-.005-.224-.447Zm1.898.352.322-.383-.004-.004-.318.387Zm-.328 1.101.062-.496-.012-.001-.013-.001-.037.498Zm-.633-.047.037-.498-.03-.002-.03.001.023.5Zm-4.78.375-.051-.497-.012.001.062.497Zm-.563.07-.062-.495-.442.055.004.445.5-.004Zm-.14 4.97.496.052.001-.008-.498-.044Zm-.352.82.377.328.005-.006.006-.007-.388-.315Zm-1.665.398.167-.471-.034-.012-.034-.007-.099.49Zm-2.882.89-.337-.369-.017.016-.016.017.37.337Zm.304 5.298.348-.36-.004-.004-.344.364Zm8.602-1.336-.33-.376-.033.029-.028.035.39.312Zm1.312-.14.354-.354-.02-.02-.021-.017-.313.39ZM30.18 32l-.282-.413-.01.007.292.406Zm-9.492-.281-.354.353.008.008.009.008.337-.37Zm-.563-7.688-.341-.365-.008.007-.008.008.357.35Zm3.75-1.5.04.499.028-.003.027-.005-.095-.49Zm.75-.937-.5.028.002.016.002.016.496-.06Zm-.188-3.352.5-.028-.03-.541-.538.074.069.495Zm-5.671 1.102-.153-.477-.02.007-.021.009.194.46Zm-2.25-.61-.328.378.01.01.012.008.306-.396Zm-.235-.578c.039 0 .088.01.152.041l.447-.894a1.332 1.332 0 0 0-.599-.147v1Zm.305.089c.46.066.921.099 1.383.099v-1c-.414 0-.828-.03-1.242-.089l-.142.99Zm1.383.099c.372 0 .801-.034 1.285-.098l-.133-.992c-.454.061-.837.09-1.152.09v1Zm1.276-.097 10.5-1.22-.115-.992-10.5 1.218.115.994Zm10.538-1.225c.579-.112 1.059-.246 1.422-.41l-.41-.912c-.262.118-.657.234-1.203.34l.19.982Zm1.44-.418c.173-.087.377-.135.62-.135v-1c-.38 0-.74.076-1.067.24l.448.895Zm.62-.135c.025 0 .1.01.236.08.133.068.3.18.502.345l.635-.773a3.898 3.898 0 0 0-.682-.463c-.215-.11-.45-.19-.69-.19v1Zm.734.422c.232.194.386.347.479.46a.657.657 0 0 1 .076.11c.01.02-.007-.005-.007-.063h1c0-.28-.164-.519-.294-.679a4.686 4.686 0 0 0-.611-.594l-.643.766Zm.548.507a.294.294 0 0 1 .163-.24l.01-.004a.044.044 0 0 1 .004-.001H33.3l-.01.002a.404.404 0 0 1-.039.001v1c.167 0 .38-.026.565-.152.217-.15.31-.38.31-.606h-1Zm.125-.242c-.178 0-.384-.014-.618-.043l-.124.992c.266.034.514.051.742.051v-1Zm-.643-.045-.633-.047-.073.997.632.047.074-.997Zm-.693-.048a89.653 89.653 0 0 0-4.808.377l.1.995a88.546 88.546 0 0 1 4.755-.373l-.047-.999Zm-4.82.378-.562.07.124.993.562-.07-.124-.993Zm-1 .57c.015 2.088-.032 3.726-.139 4.92l.996.09c.112-1.242.158-2.917.143-5.017l-1 .008Zm-.138 4.913c-.02.193-.095.377-.242.558l.776.63c.259-.319.418-.682.46-1.083l-.994-.105Zm-.232.545c-.23.266-.466.367-.724.367v1c.586 0 1.085-.258 1.479-.711l-.755-.656Zm-.724.367c.006 0-.022 0-.101-.02a3.372 3.372 0 0 1-.295-.092l-.333.943c.26.092.523.169.729.169v-1Zm-.464-.131a3.502 3.502 0 0 0-.661-.08v1c.093 0 .243.016.464.06l.197-.98Zm-.661-.08c-.984 0-1.875.378-2.657 1.091l.673.74c.624-.569 1.28-.831 1.984-.831v-1Zm-2.69 1.124c-.715.785-1.091 1.683-1.091 2.68h1c0-.72.264-1.385.83-2.006l-.739-.674Zm-1.091 2.68c0 1.309.477 2.425 1.422 3.317l.687-.727c-.743-.701-1.11-1.553-1.11-2.59h-1Zm1.418 3.313c1.026.991 2.327 1.477 3.863 1.477v-1c-1.308 0-2.35-.405-3.168-1.196l-.695.72Zm3.863 1.477c2.146 0 3.977-.981 5.477-2.86l-.782-.624c-1.344 1.683-2.903 2.484-4.695 2.484v1Zm5.415-2.796c.197-.172.326-.204.398-.204v-1c-.398 0-.753.186-1.056.452l.658.752Zm.398-.204c.14 0 .22.035.273.078l.625-.781a1.407 1.407 0 0 0-.898-.297v1Zm.232.04c.09.09.111.162.111.233h1c0-.367-.15-.685-.404-.94l-.707.708Zm.111.233c0 .566-.429 1.272-1.633 2.095l.564.826c1.264-.864 2.07-1.83 2.07-2.92h-1Zm-1.643 2.102c-1.23.883-2.727 1.336-4.513 1.336v1c1.964 0 3.671-.501 5.096-1.524l-.583-.812Zm-4.513 1.336c-1.765 0-3.203-.533-4.35-1.58l-.674.738c1.352 1.234 3.039 1.842 5.024 1.842v-1Zm-4.334-1.565c-1.166-1.166-1.729-2.472-1.729-3.935h-1c0 1.755.688 3.309 2.022 4.642l.707-.707Zm-1.729-3.935c0-1.259.396-2.261 1.17-3.048l-.714-.701c-.976.994-1.456 2.257-1.456 3.749h1Zm1.154-3.033c.838-.782 1.973-1.25 3.449-1.367l-.08-.997c-1.65.132-3.014.665-4.051 1.633l.682.73Zm3.504-1.375c.349-.068.68-.213.905-.495.232-.29.289-.644.246-.993l-.992.12c.02.166-.017.226-.035.248-.025.031-.1.097-.314.138l.19.982Zm1.154-1.456-.187-3.352-.999.056.188 3.352.998-.056Zm-.755-3.82c-2.613.36-4.54.733-5.756 1.122l.305.952c1.128-.361 2.982-.724 5.588-1.082l-.137-.991Zm-5.797 1.137c-.257.108-.456.148-.603.148v1c.32 0 .654-.085.99-.226l-.387-.922Zm-.603.148c.004 0-.021 0-.085-.022a1.694 1.694 0 0 1-.25-.115 6.596 6.596 0 0 1-.813-.555l-.611.791c.354.274.67.49.944.64.258.142.542.261.815.261v-1Zm-1.126-.674a5.346 5.346 0 0 1-.48-.457.789.789 0 0 1-.078-.1c-.015-.025.027.03.027.137h-1c0 .17.073.306.116.378.05.085.116.168.185.246.14.158.334.343.575.551l.655-.755Zm-.53-.42c0 .024-.006.07-.034.12a.265.265 0 0 1-.092.098c-.023.014-.032.013-.013.01a.574.574 0 0 1 .107-.009v-1c-.19 0-.415.026-.609.142a.73.73 0 0 0-.36.64h1Z"/></svg>
